!!!SOCIAL_FUNCTION:	bird dance songs
!!!PDT:	1956
!!!OTL: No_138_Sandhill_Crane_Dance_Song_(b).krn
!!!LANG: Non-Tone
!!!LING_GROUP: Muskogean
!!!REG: Florida
**kern
*staff1
=1-
*clefF4
*k[b-e-a-]
*M4/8
4.r
16B-\LL
16B-\JJ
=2!|:
4B-\
16c\LL
16c\JJ
8B-\
=3
4.B-\
8A-\
=4||
*M3/8
8G\L
16E-\Jk
16r
8B-\
=5
4B-\
16B-\LL
16A-\JJ
=6
4A-\
16G\LL
16E-\JJ
=7
4A-\
8G\
=8
4E-\
16E-\LL
16E-\JJ
=9
(8.E-/L
16C/K)
8C/J
=10
8BB-/
8r
8E-\
=11
4E-\
16B-\LL
16B-\JJ
=12
4A-\
16G\LL
16E-\JJ
=13
4A-\
8G\
=14
4E-\
16E-\LL
16E-\JJ
=15
(8.E-/L
16C/K)
8C/J
=16
8BB-/
8r
8c\
=17:|!
(8.E-/L
16C/K)
8C/J
=18
8BB-/
8r
16E-\LL
16E-\JJ
=19
[4.E-\
=20
4E-\]
8r
*-
